X: 149121
Q: "Lively."
M: 6/8
L: 1/8
K: A
uE |\
E>FE ECE | E>FA A2uf | e>dc B>cd | c>BA F>GA |\
E>FE ECE | E>FA A2uf | e>dc BAB | cAA A2 :|
vc/d/ |\
e>fe ece | vf2vg a2uf | e>dc B>cd | c>BA uF2uE |\
e>fe ece | f2g a2f | e>dc B>cd | cAA A2
c/d/ |\
e>fe ece | f2g a2f | e>dc Bcd | c>BA F2E |\


